X:1
T:Title
%%score { ( 1 3 ) | 2 }
L:1/8
M:4/4
K:Bb
V:1 treble nm="Grand Piano"
V:3 treble 
V:2 bass 
V:1
 z4 z2[Q:1/4=94] [DF]>[DF] | [DB]>[DB] [DB]>[DB] [EG]>[DF] [DF]>[DG] | [DB]>[FB] [GB]>B F2 B>B | %3
 d>d d>c B>B [=Ec]>[Ed] | c6 F>F | [DB]>[FB] [=EB]>[_EB] [EG]>[DF] [DF]>[EG] | %6
 [DB]>[DB] [DB]>[EG] [DF]2 [DG]>[DB] | d>d d>d d>[FB] [Ec]>[Ec] |[M:3/4] [DB]6 |[M:1/4] [DF]>[DF] | %10
[M:4/4] [DB]>[DB] [EB]>[EB] [DB]>F G>A | B2- [FB-]>[EB-] [DB]2 [DB]>[Ec] | %12
 [Fd]>[Fd] [Fd]>[Fd] [Fd]>[Fc] [FB]>[Fd] | c6 z2 | f>f f>e d2 G>B | d>d d>c B2 B>[FAc] | %16
 [FBd]>[FBd] [FBd]>[EGc] [DFB]<[DFB] [EFc]>[EFc] |[M:3/4] [DFB]6 |] %18
V:2
 z4 z2 [B,,B,]>[B,,B,] | [B,,F,]>[B,,F,] [B,,F,]>[B,,F,] [B,,B,]>[B,,B,] [B,,B,]>[B,,B,] | %2
 [B,,B,]>[D,B,] [E,B,]>[K:treble][G,B,E] [B,D]2 [B,D]>[B,D] | %3
 [B,F]>[B,F] [B,F]>[K:bass][F,A,E] [G,B,D]>[G,B,D] [C,B,]>[B,,B,] | [F,A,F]6 [F,A,E]>[F,A,E] | %5
 [B,,B,]>[B,,_A,] [B,,G,]>[B,,^F,] [B,,=F,]>[B,,B,] [B,,B,]>[B,,B,] | %6
 [B,,B,]>[B,,F,] [B,,B,]>[B,,B,] [B,,B,]2 [B,,B,]>[B,,B,] | %7
 [B,F]>[B,F] [B,F]>[B,F] [B,F]>[K:bass][D,B,] [F,A,]>[F,A,] |[M:3/4] [B,,B,]6 | %9
[M:1/4] [B,,B,]>[B,,B,] |[M:4/4] [B,,F,]>[B,,F,] [B,,G,]>[B,,G,] [B,,F,]>[D,B,] [E,B,E]>[F,E] | %11
 [B,,F,]2 [B,,A,]>[B,,G,] [B,,F,]2 [B,,F,]>[B,,F,] | %12
 [B,,B,]>[B,,B,] [B,,B,]>[B,,B,] [B,,B,]>[C,A,] [D,B,]>[B,,B,] | %13
 [F,A,F]2 [F,E]>[F,D] [F,C]2[K:treble] [B,DF]>[B,FB] | %14
 [DFB]>[DFB] [DFB]>[DFA] [B,FB]2 [G,B,D]>[G,DG] | %15
 [B,DG]>[B,DG] [B,DG]>[A,CF] [G,DG]2 [G,DG]>[K:bass]F, | B,>B, B,>E, F,<F, F,>F, |[M:3/4] B,,6 |] %18
V:3
 x8 | x8 | x8 | x8 | x8 | x8 | x8 | x8 |[M:3/4] x6 |[M:1/4] x2 |[M:4/4] x8 | D2 z2 z4 | x8 | %13
 z2 A>B AG B>d | x8 | x8 | x8 |[M:3/4] x6 |] %18

